X:1
T:Title
%%score { ( 1 3 ) | ( 2 4 ) }
L:1/8
Q:1/4=100
M:4/4
K:Eb
V:1 treble nm="Grand Piano"
V:3 treble 
V:2 bass 
V:4 bass 
V:1
 e2 B2 z2 G>A | c2 B2 z2 [B,DG]>[A,DF] | [G,E]2 [G,B,E]2 [DF]2 [DF]2 | G2 G2 z4 | G2 G2 A2 [DF]2 | %5
w: C.~Austin~Miles * * *|||||
 G2 G2 A2 [DF]2 | [EG]2 [GB]2 B2 c2 | d6 z2 | e2 B2 z2 G>A | c2 B2 z2 [B,DG]>[A,DF] | %10
w: |||||
 E2 E2 F2 _G2 | G2 G2 z2 G2 | F2 F2 _G2 G2 | G2 B2 z2 G2 | [EB]2 [EB]2 [_DB]2 [DB]2 | %15
w: |||||
[M:9/8] [DB]8- [DB] |[M:1/4] G2 |[M:4/4] [EGB]2 [EGB]2 [EGc]>[EGc] [B,EG]>[B,EG] | %18
w: |||
 [B,EGB]2 [B,EGB]4 A>G | F6 z2 | G6[K:bass][K:treble] z2 | [EGB]2 [EGB]2 c>c G>G | %22
w: ||||
 [B,EGB]2 [B,EGB]4 B>c | [DFBd]2 [DFB]2 [EF=Ac]2 [EFA]2 | z4 B,2 [FB]>[FB] | %25
w: |||
 [DFc]2 [DA]>[DG] [DF]2 [DFB]2 | G2 E4 z2 | [=B,DG]2 G>F D2 [B,DF]2 | E>D z2 G,2 E>E | %29
w: ||||
 [CAc]2 [Ac]2 [DAd]2 [Ac]2 | B>c B2- [GB]2 G>A | B4 z4 |[M:5/4] e4- e/-<[_Ge-]/ [=G-e]2 G z2 |] %33
w: ||||
V:2
 [E,E]2 B,2 z2 G,>A, | C2 B,2 z2 B,,>B,, | E,2 E,2 [B,,B,]2 [B,,B,]2 | [E,B,E]2 [E,B,E]2 z4 | %4
 [E,B,E]2 [=E,B,_D]2 [F,B,=D]2 [B,,B,]2 | [E,B,E]2 [=E,B,_D]2 [F,B,=D]2 [B,,B,]2 | %6
 [E,B,]2 [E,E]2[K:treble] [F,DF]2 [F,EF]2 | F2 z2 z4 | [E,E]2 B,2 z2 G,>A, | C2 B,2 z2 B,,>B,, | %10
 [C,G,]2 [C,G,C]2 [A,CE]2 [A,CE]2 | [G,=B,D]2 [G,B,D]2 z2[K:treble] [G,B,D]2 | %12
 [A,CE]2 [A,CE]2 [=A,CE]2 [A,CE]2 | [B,E]2 [B,EG]2 z2[K:bass] [B,E]2 | %14
 [B,,G,]2 [B,,G,]2 [B,,=E,]2 [B,,E,]2 |[M:9/8] [B,,F,]8- [B,,F,] |[M:1/4] z2 | %17
[M:4/4] [E,,E,]2 [B,,,B,,]2 [E,,E,]2 [B,,,B,,]2 | [E,,E,]2 [B,,,B,,]2 [E,,E,]2 [B,,,B,,]2 | %19
 [F,,F,]2 [B,,,B,,]2 [F,,F,]2 [B,,,B,,]2 | [E,,E,]2 [B,,,B,,]2 [E,,E,]2 [B,,,B,,]2 | %21
 [E,,E,]2 [B,,,B,,]2 [E,,E,]2 [B,,,B,,]2 | [E,,E,]2 [B,,,B,,]2 [E,,E,]2 [B,,,B,,]2 | %23
 [F,,F,]2 [F,,F,]2 [F,,F,]2 [F,,F,]2 | [B,,B,]2 F,2 B,,2 D>D | B,,2 [D,F,B,]2 [D,F,B,]2 [D,F,B,]2 | %26
 E,,2 [E,G,B,]2 [E,G,]2 [E,G,B,]2 | G,,2 [=B,,D,G,]2 [B,,D,G,=B,]2 [B,,D,G,]2 | z4 z2 C2 | %29
 A,,2 [E,A,C]2 A,,2 [E,A,C]2 | [E,,E,]2 [E,G,B,]2 [E,G,B,E]2 [G,,G,]>[A,,A,] | %31
 [B,,B,]2 [B,,B,]>[B,,B,] [B,,B,]2 [B,,B,]>[B,,B,] |[M:5/4] B,2 C4 z4 |] %33
V:3
 x8 | x8 | x8 | x8 | x8 | x8 | x8 | z2 B2 =A2 _A2 | x8 | x8 | x8 | x8 | x8 | x8 | x8 |[M:9/8] x9 | %16
[M:1/4] x2 |[M:4/4] x8 | x8 | z2 [B,D]>[B,D] [B,D]2 B>A | %20
 z2[K:bass] [E,B,E]>[E,B,E][K:treble] [B,E]2 [B,EG]2 | z4 [EG]2 [B,E]2 | z4 z2 [EG]2 | x8 | %24
 [DFB]6 z2 | x8 | E->[EF] z2 B,2 E>E | z2 [=B,D]2 z4 | z2 C4 z2 | x8 | [EG]2 [EG]2 z4 | %31
 z2 [DFA]>[DFA] [DFA]2 [Af]>[Ae] |[M:5/4] G2 A4 z4 |] %33
V:4
 x8 | x8 | x8 | x8 | x8 | x8 | x4[K:treble] x4 | [B,D]6 z2 | x8 | x8 | x8 | x6[K:treble] x2 | x8 | %13
 x6[K:bass] x2 | x8 |[M:9/8] x9 |[M:1/4] x2 |[M:4/4] x8 | x8 | x8 | x8 | x8 | x8 | x8 | x8 | x8 | %26
 x8 | x8 | [C,C]2 [E,G,]2 E,2 [E,G,]->[E,G,C] | x8 | x8 | x8 | %32
[M:5/4] [E,E]4- [E,E]/-<[E,-A,E-]/ [E,B,-E]2 B, z2 |] %33

